src/assets/template/spritesvg/vk.svg

<svg width="40" height="40" viewBox="0 0 40 40" fill="none" xmlns="http://www.w3.org/2000/svg">
<rect x="1" y="1" width="38" height="38" stroke="#C4C4C4" stroke-width="2"/>
<g clip-path="url(#clip0)">
<path d="M20.1813 29.375C24.5212 29.375 22.9738 26.6275 23.3088 25.8375C23.3038 25.2475 23.2987 24.68 23.3188 24.335C23.5938 24.4125 24.2425 24.7412 25.5825 26.0437C27.6512 28.1312 28.18 29.375 29.8512 29.375H32.9275C33.9025 29.375 34.41 28.9713 34.6638 28.6325C34.9088 28.305 35.1488 27.73 34.8862 26.835C34.2 24.68 30.1975 20.9587 29.9487 20.5662C29.9862 20.4937 30.0462 20.3975 30.0775 20.3475H30.075C30.865 19.3038 33.88 14.7862 34.3237 12.9787C34.325 12.9762 34.3263 12.9725 34.3263 12.9688C34.5662 12.1437 34.3463 11.6088 34.1187 11.3063C33.7763 10.8538 33.2313 10.625 32.495 10.625H29.4188C28.3888 10.625 27.6075 11.1437 27.2125 12.09C26.5513 13.7713 24.6938 17.2288 23.3013 18.4525C23.2587 16.7188 23.2875 15.395 23.31 14.4112C23.355 12.4925 23.5 10.625 21.5087 10.625H16.6737C15.4262 10.625 14.2325 11.9875 15.525 13.605C16.655 15.0225 15.9312 15.8125 16.175 19.745C15.225 18.7262 13.535 15.975 12.34 12.4588C12.005 11.5075 11.4975 10.6262 10.0687 10.6262H6.9925C5.745 10.6262 5 11.3062 5 12.445C5 15.0025 10.6613 29.375 20.1813 29.375ZM10.0687 12.5012C10.34 12.5012 10.3675 12.5013 10.5687 13.0725C11.7925 16.6762 14.5375 22.0088 16.5425 22.0088C18.0487 22.0088 18.0487 20.465 18.0487 19.8837L18.0475 15.2562C17.965 13.725 17.4075 12.9625 17.0413 12.5L21.4263 12.505C21.4287 12.5263 21.4013 17.6237 21.4387 18.8587C21.4387 20.6125 22.8312 21.6175 25.005 19.4175C27.2987 16.8288 28.885 12.9588 28.9487 12.8013C29.0425 12.5763 29.1238 12.5 29.4188 12.5H32.495H32.5075C32.5063 12.5037 32.5063 12.5075 32.505 12.5112C32.2237 13.8237 29.4475 18.0063 28.5188 19.305C28.5037 19.325 28.49 19.3463 28.4762 19.3675C28.0675 20.035 27.735 20.7725 28.5325 21.81H28.5337C28.6062 21.8975 28.795 22.1025 29.07 22.3875C29.925 23.27 32.8575 26.2875 33.1175 27.4875C32.945 27.515 32.7575 27.495 29.8512 27.5012C29.2325 27.5012 28.7487 26.5763 26.9025 24.7137C25.2425 23.0988 24.165 22.4388 23.1838 22.4388C21.2787 22.4388 21.4175 23.985 21.435 25.855C21.4412 27.8825 21.4288 27.2413 21.4425 27.3688C21.3313 27.4125 21.0125 27.5 20.1813 27.5C12.25 27.5 7.085 14.9113 6.88625 12.505C6.955 12.4988 7.90125 12.5025 10.0687 12.5012Z" fill="#C4C4C4"/>
</g>
<defs>
<clipPath id="clip0">
<rect x="5" y="5" width="30" height="30" fill="white"/>
</clipPath>
</defs>
</svg>

<svg width="40" height="40" fill="none" xmlns="http://www.w3.org/2000/svg"><path stroke="#C4C4C4" stroke-width="2" d="M1 1h38v38H1z"/><g clip-path="url(#clip0)"><path d="M20.181 29.375c4.34 0 2.793-2.747 3.128-3.538-.005-.59-.01-1.157.01-1.502.275.078.924.406 2.264 1.709 2.068 2.087 2.597 3.331 4.268 3.331h3.077c.975 0 1.482-.404 1.736-.742.245-.328.485-.903.222-1.798-.686-2.155-4.689-5.876-4.937-6.269a3.52 3.52 0 01.128-.218h-.002c.79-1.044 3.805-5.562 4.249-7.37a.023.023 0 00.002-.01c.24-.824.02-1.36-.207-1.662-.343-.452-.888-.681-1.624-.681h-3.076c-1.03 0-1.811.519-2.207 1.465-.66 1.681-2.518 5.139-3.91 6.363a80.036 80.036 0 01.008-4.042c.045-1.918.19-3.786-1.801-3.786h-4.835c-1.248 0-2.441 1.363-1.149 2.98 1.13 1.418.406 2.207.65 6.14-.95-1.019-2.64-3.77-3.835-7.286-.335-.951-.842-1.833-2.271-1.833H6.992c-1.247 0-1.992.68-1.992 1.819 0 2.557 5.661 16.93 15.181 16.93zM10.07 12.501c.271 0 .298 0 .5.572 1.223 3.603 3.968 8.936 5.973 8.936 1.507 0 1.507-1.544 1.507-2.125l-.002-4.628c-.082-1.531-.64-2.293-1.006-2.756l4.385.005c.003.021-.025 5.119.013 6.354 0 1.753 1.392 2.758 3.566.558 2.294-2.588 3.88-6.458 3.944-6.616.093-.225.175-.301.47-.301h3.089l-.003.011c-.281 1.313-3.058 5.495-3.986 6.794-.015.02-.029.041-.043.063-.409.667-.741 1.405.056 2.442h.002c.072.088.261.293.536.578.855.882 3.788 3.9 4.047 5.1-.172.027-.36.007-3.266.013-.618 0-1.102-.925-2.948-2.787-1.66-1.615-2.738-2.275-3.72-2.275-1.904 0-1.765 1.546-1.748 3.416.006 2.027-.006 1.386.008 1.514-.112.044-.43.131-1.262.131-7.931 0-13.096-12.589-13.295-14.995.069-.006 1.015-.003 3.183-.004z" fill="#C4C4C4"/></g><defs><clipPath id="clip0"><path fill="#fff" d="M5 5h30v30H5z"/></clipPath></defs></svg>
